packages/icons/svg/32/NovelViewerSettings.svg

<svg width="32" height="32" viewBox="0 0 32 32" fill="none" xmlns="http://www.w3.org/2000/svg">
<path fill-rule="evenodd" clip-rule="evenodd" d="M6.00125 21L4.42647 24.8764C4.2186 25.3881 3.6353 25.6343 3.12363 25.4265C2.61195 25.2186 2.36567 24.6353 2.57354 24.1236L9.07354 8.12362C9.41133 7.29213 10.5887 7.29213 10.9265 8.12362L17.4265 24.1236C17.6343 24.6353 17.3881 25.2186 16.8764 25.4265C16.3647 25.6343 15.7814 25.3881 15.5735 24.8764L13.9988 21H6.00125ZM27 15.5V15.641C25.9932 14.7741 24.6828 14.25 23.25 14.25C20.0744 14.25 17.5 16.8244 17.5 20C17.5 23.1756 20.0744 25.75 23.25 25.75C24.6828 25.75 25.9932 25.2259 27 24.359V24.5C27 25.0523 27.4477 25.5 28 25.5C28.5523 25.5 29 25.0523 29 24.5V15.5C29 14.9477 28.5523 14.5 28 14.5C27.4477 14.5 27 14.9477 27 15.5ZM27 20C27 22.0711 25.3211 23.75 23.25 23.75C21.1789 23.75 19.5 22.0711 19.5 20C19.5 17.9289 21.1789 16.25 23.25 16.25C25.3211 16.25 27 17.9289 27 20ZM13.1863 19H6.81375L10 11.1569L13.1863 19Z" fill="#858585"/>
</svg>

<svg width="32" height="32" fill="none" xmlns="http://www.w3.org/2000/svg" viewBox="0 0 32 32"><path fill-rule="evenodd" clip-rule="evenodd" d="M6.001 21l-1.575 3.876a1 1 0 01-1.852-.752l6.5-16c.337-.832 1.515-.832 1.853 0l6.5 16a1 1 0 01-1.854.752L14 21H6zM27 15.5v.141a5.75 5.75 0 100 8.718v.141a1 1 0 102 0v-9a1 1 0 10-2 0zm0 4.5a3.75 3.75 0 11-7.5 0 3.75 3.75 0 017.5 0zm-13.814-1H6.814L10 11.157 13.186 19z" fill="currentColor"></path></svg>
